Newaita-dark/apps/16/com.github.torikulhabib.mindi.svg

<svg height="16pt" viewBox="0 0 16 16" width="16pt" xmlns="http://www.w3.org/2000/svg" xmlns:xlink="http://www.w3.org/1999/xlink"><linearGradient id="a"><stop offset="0" stop-opacity=".313725"/><stop offset=".222222" stop-opacity=".27451"/><stop offset="1" stop-opacity="0"/></linearGradient><radialGradient id="b" cx="450.90894" cy="189.57936" gradientTransform="matrix(.00000009 -.0390662 -.0703192 -.00000005 16.638644 31.797667)" gradientUnits="userSpaceOnUse" r="21.166656" xlink:href="#a"/><radialGradient id="c" cx="450.90894" cy="189.57936" gradientTransform="matrix(-.00000009 .0390662 .0703192 .00000005 -9.692666 -3.763739)" gradientUnits="userSpaceOnUse" r="21.166656" xlink:href="#a"/><radialGradient id="d" cx="450.90894" cy="189.57936" gradientTransform="matrix(-.00000009 -.0390662 .0703192 -.00000005 -9.692666 31.797667)" gradientUnits="userSpaceOnUse" r="21.166656" xlink:href="#a"/><radialGradient id="e" cx="450.90894" cy="189.57936" gradientTransform="matrix(.00000009 .0390662 -.0703192 .00000005 16.638643 -3.76374)" gradientUnits="userSpaceOnUse" r="21.166656" xlink:href="#a"/><linearGradient id="f" gradientUnits="userSpaceOnUse" x1="7.938262" x2="7.938262" y1="14.0169675" y2="1.44805256249"><stop offset="0" stop-color="#9ccc65"/><stop offset="1" stop-color="#aed581"/></linearGradient><linearGradient id="g" gradientUnits="userSpaceOnUse" x1="6.39371134658" x2="6.39371134658" y1="10.98659634269" y2="5.05760816331"><stop offset="0" stop-color="#424242"/><stop offset="1" stop-color="#616161"/></linearGradient><path d="m3.472656 14.015625h1.324219v-.660156h-1.324219zm0 0" fill="url(#b)"/><path d="m3.472656 14.015625h-1.324218v.664063h1.324218zm0 0" fill="url(#c)"/><path d="m3.472656 14.015625h-1.324218v-.660156h1.324218zm0 0" fill="url(#d)"/><path d="m3.472656 14.015625h1.324219v.664063h-1.324219zm0 0" fill="url(#e)"/><path d="m3.640625 1.449219c-.042969 0-.085937 0-.128906.007812-.007813 0-.015625 0-.019531 0-.003907.003907-.007813.003907-.011719.003907-.003907 0-.007813 0-.011719 0-.429688.074218-.761719.421874-.816406.859374v.019532c-.003906.042968-.007813.082031-.007813.125v10.558594.007812c-.003906.175781.039063.355469.136719.523438.273438.476562.878906.636718 1.355469.363281l9.164062-5.292969c.324219-.1875.503907-.527344.496094-.875.007813-.347656-.171875-.6875-.496094-.875l-9.125-5.269531c-.109375-.070313-.234375-.121094-.367187-.144531-.007813 0-.015625 0-.019532 0-.050781-.007813-.097656-.011719-.148437-.011719zm0 0" fill="url(#f)"/><path d="m3.640625 1.449219c-.042969 0-.085937 0-.128906.007812-.007813 0-.015625 0-.019531 0-.003907.003907-.007813.003907-.011719.003907-.003907 0-.007813 0-.011719 0-.429688.074218-.761719.421874-.816406.859374v.019532c-.003906.042968-.007813.082031-.007813.125v.125c.003907-.027344.003907-.058594.007813-.085938 0-.003906 0-.011718 0-.019531.054687-.4375.386718-.785156.816406-.855469.003906 0 .007812-.003906.011719-.003906h.011719c.003906 0 .011718-.003906.019531-.003906.042969-.003906.085937-.007813.128906-.007813.050781 0 .097656.003907.148437.011719.003907 0 .011719.003906.019532.003906.132812.023438.257812.070313.367187.140625l9.125 5.269531c.300781.171876.472657.472657.496094.792969 0-.027343 0-.054687 0-.082031.007813-.347656-.171875-.6875-.496094-.875l-9.125-5.269531c-.109375-.070313-.234375-.121094-.367187-.144531-.007813 0-.015625 0-.019532 0-.050781-.007813-.097656-.011719-.148437-.011719zm-.996094 11.589843v.035157zm0 0" fill="#fff" fill-opacity=".392157"/><path d="m2.644531 2.421875v.042969zm11.144531 5.179687c-.039062.292969-.210937.5625-.488281.722657l-9.164062 5.292969c-.476563.277343-1.082031.113281-1.355469-.363282-.089844-.152344-.132812-.316406-.136719-.480468v.25.007812c-.003906.175781.039063.355469.136719.523438.273438.476562.878906.636718 1.355469.363281l9.164062-5.292969c.324219-.1875.503907-.527344.496094-.875.003906-.050781 0-.101562-.007813-.148438zm-11.144531 5.125v.015626c0-.003907 0-.007813 0-.007813 0-.003906 0-.007813 0-.007813zm0 0" fill-opacity=".235294"/><path d="m3.640625 1.402344c-.042969 0-.089844 0-.136719.007812-.003906 0-.011718 0-.019531.003906-.003906 0-.007813 0-.011719 0s-.007812 0-.007812 0c-.453125.078126-.800782.441407-.859375.898438v.023438c-.003907.042968-.007813.085937-.007813.128906v10.558594.007812c-.003906.183594.042969.371094.140625.546875.289063.496094.921875.667969 1.421875.378906l9.164063-5.292969c.339843-.195312.527343-.550781.519531-.914062.007812-.367188-.179688-.722656-.519531-.917969l-9.125-5.265625c-.113281-.074218-.242188-.125-.382813-.148437-.007812-.003907-.015625-.003907-.023437-.003907-.050781-.007812-.101563-.011718-.152344-.011718zm0 .09375c.046875 0 .09375.003906.140625.007812.007812.003906.011719.003906.019531.003906.125.023438.246094.070313.347657.136719l9.128906 5.269531c.308594.179688.480468.503907.472656.835938.007812.332031-.164062.65625-.472656.832031l-9.164063 5.292969c-.457031.261719-1.03125.109375-1.292969-.34375-.089843-.160156-.132812-.332031-.128906-.5 0-.003906 0-.003906 0-.007812v-10.558594c0-.042969.003906-.082032.007813-.121094 0-.007812 0-.011719 0-.019531.050781-.414063.371093-.746094.777343-.816407h.003907.007812c.003907 0 .007813-.003906.007813-.003906h.023437c.039063-.007812.082031-.007812.121094-.007812zm0 0" fill="#212121"/><path d="m5.457031 5.058594c-.203125 0-.367187.191406-.367187.429687v3.683594c-.117188-.035156-.242188-.054687-.371094-.054687-.613281 0-1.105469.414062-1.105469.925781s.492188.921875 1.105469.921875 1.109375-.410156 1.109375-.921875v-4.0625c0-.101563.082031-.183594.183594-.183594h1.84375c.105469 0 .1875.082031.1875.183594v2.082031c-.117188-.03125-.242188-.050781-.371094-.050781-.613281 0-1.105469.410156-1.105469.921875 0 .511718.492188.921875 1.105469.921875s1.109375-.410157 1.109375-.921875v-3.445313c0-.238281-.164062-.429687-.371094-.429687zm0 0" fill="url(#g)"/><path d="m5.457031 5.058594c-.203125 0-.367187.191406-.367187.429687v.164063c0-.238282.164062-.429688.367187-.429688h2.953125c.207032 0 .371094.191406.371094.429688v-.164063c0-.238281-.164062-.429687-.371094-.429687zm2.214844 2.953125c-.613281 0-1.105469.410156-1.105469.921875 0 .027344 0 .054687.003906.082031.050782-.472656.523438-.839844 1.101563-.839844.128906 0 .253906.019531.371094.054688v-.167969c-.117188-.03125-.242188-.050781-.371094-.050781zm-2.953125 1.105469c-.613281 0-1.105469.414062-1.105469.925781 0 .027343 0 .054687.003907.082031.046874-.472656.523437-.839844 1.101562-.839844.128906 0 .253906.015625.371094.050782v-.164063c-.117188-.035156-.242188-.054687-.371094-.054687zm0 0" fill="#fff" fill-opacity=".392157"/><path d="m6.011719 5.796875c-.101563 0-.183594.082031-.183594.183594v.25c0-.105469.082031-.1875.183594-.1875h1.84375c.105469 0 .1875.082031.1875.1875v-.25c0-.101563-.082031-.183594-.1875-.183594zm2.769531 3.136719c0 .511718-.496094.921875-1.109375.921875-.5625 0-1.023437-.34375-1.097656-.796875-.003907.039062-.007813.082031-.007813.125 0 .511718.492188.921875 1.105469.921875s1.109375-.410157 1.109375-.921875zm-2.953125 1.109375c0 .511719-.496094.921875-1.109375.921875-.5625 0-1.023438-.347656-1.097656-.800782-.007813.042969-.007813.082032-.007813.125 0 .511719.492188.921876 1.105469.921876s1.109375-.410157 1.109375-.921876zm0 0" fill-opacity=".235294"/><path d="m174.608326-53.140457c-6.49938 0-11.748878 6.124415-11.748878 13.748687v117.863745c-3.749642-1.124893-7.74926-1.749833-11.873866-1.749833-19.623126 0-35.371623 13.248735-35.371623 29.622171 0 16.373437 15.748497 29.497183 35.371623 29.497183s35.49661-13.123746 35.49661-29.497183v-129.987587c0-3.249689 2.624749-5.874439 5.874439-5.874439h58.994366c3.374678 0 5.999427 2.62475 5.999427 5.874439v66.618639c-3.749642-.999905-7.74926-1.624845-11.873866-1.624845-19.623126 0-35.371622 13.123746-35.371622 29.497183 0 16.373436 15.748496 29.497183 35.371622 29.497183s35.49661-13.123747 35.49661-29.497183v-110.239473c0-7.624272-5.249498-13.748687-11.873866-13.748687zm0 0" fill="none" stroke="#212121" stroke-linecap="round" stroke-width="3" transform="matrix(.031253 0 0 .031253 0 6.719392)"/></svg>

<?xml version="1.0" encoding="UTF-8"?>
<svg xmlns="http://www.w3.org/2000/svg" xmlns:xlink="http://www.w3.org/1999/xlink" width="16pt" height="16pt" viewBox="0 0 16 16" version="1.1">
<defs>
<radialGradient id="radial0" gradientUnits="userSpaceOnUse" cx="450.90894" cy="189.57936" fx="450.90894" fy="189.57936" r="21.166656" gradientTransform="matrix(0.0000000870852,-0.0390662,-0.0703192,-0.0000000507693,16.638644,31.797667)">
<stop offset="0" style="stop-color:rgb(0%,0%,0%);stop-opacity:0.313725;"/>
<stop offset="0.222222" style="stop-color:rgb(0%,0%,0%);stop-opacity:0.27451;"/>
<stop offset="1" style="stop-color:rgb(0%,0%,0%);stop-opacity:0;"/>
</radialGradient>
<radialGradient id="radial1" gradientUnits="userSpaceOnUse" cx="450.90894" cy="189.57936" fx="450.90894" fy="189.57936" r="21.166656" gradientTransform="matrix(-0.0000000870852,0.0390662,0.0703192,0.0000000507693,-9.692666,-3.763739)">
<stop offset="0" style="stop-color:rgb(0%,0%,0%);stop-opacity:0.313725;"/>
<stop offset="0.222222" style="stop-color:rgb(0%,0%,0%);stop-opacity:0.27451;"/>
<stop offset="1" style="stop-color:rgb(0%,0%,0%);stop-opacity:0;"/>
</radialGradient>
<radialGradient id="radial2" gradientUnits="userSpaceOnUse" cx="450.90894" cy="189.57936" fx="450.90894" fy="189.57936" r="21.166656" gradientTransform="matrix(-0.0000000870852,-0.0390662,0.0703192,-0.0000000507693,-9.692666,31.797667)">
<stop offset="0" style="stop-color:rgb(0%,0%,0%);stop-opacity:0.313725;"/>
<stop offset="0.222222" style="stop-color:rgb(0%,0%,0%);stop-opacity:0.27451;"/>
<stop offset="1" style="stop-color:rgb(0%,0%,0%);stop-opacity:0;"/>
</radialGradient>
<radialGradient id="radial3" gradientUnits="userSpaceOnUse" cx="450.90894" cy="189.57936" fx="450.90894" fy="189.57936" r="21.166656" gradientTransform="matrix(0.0000000870852,0.0390662,-0.0703192,0.0000000507693,16.638643,-3.76374)">
<stop offset="0" style="stop-color:rgb(0%,0%,0%);stop-opacity:0.313725;"/>
<stop offset="0.222222" style="stop-color:rgb(0%,0%,0%);stop-opacity:0.27451;"/>
<stop offset="1" style="stop-color:rgb(0%,0%,0%);stop-opacity:0;"/>
</radialGradient>
<linearGradient id="linear0" gradientUnits="userSpaceOnUse" x1="254" y1="233.5" x2="254" y2="-168.66667" gradientTransform="matrix(0.031253,0,0,0.031253,0,6.719392)">
<stop offset="0" style="stop-color:rgb(61.176471%,80%,39.607843%);stop-opacity:1;"/>
<stop offset="1" style="stop-color:rgb(68.235294%,83.529412%,50.588235%);stop-opacity:1;"/>
</linearGradient>
<linearGradient id="linear1" gradientUnits="userSpaceOnUse" x1="981.43005" y1="1457.5077" x2="981.43005" y2="815.11719" gradientTransform="matrix(0.00922957,0,0,0.00922957,-2.664466,-2.465573)">
<stop offset="0" style="stop-color:rgb(25.882353%,25.882353%,25.882353%);stop-opacity:1;"/>
<stop offset="1" style="stop-color:rgb(38.039216%,38.039216%,38.039216%);stop-opacity:1;"/>
</linearGradient>
</defs>
<g id="surface1">
<path style=" stroke:none;fill-rule:nonzero;fill:url(#radial0);" d="M 3.472656 14.015625 L 4.796875 14.015625 L 4.796875 13.355469 L 3.472656 13.355469 Z M 3.472656 14.015625 "/>
<path style=" stroke:none;fill-rule:nonzero;fill:url(#radial1);" d="M 3.472656 14.015625 L 2.148438 14.015625 L 2.148438 14.679688 L 3.472656 14.679688 Z M 3.472656 14.015625 "/>
<path style=" stroke:none;fill-rule:nonzero;fill:url(#radial2);" d="M 3.472656 14.015625 L 2.148438 14.015625 L 2.148438 13.355469 L 3.472656 13.355469 Z M 3.472656 14.015625 "/>
<path style=" stroke:none;fill-rule:nonzero;fill:url(#radial3);" d="M 3.472656 14.015625 L 4.796875 14.015625 L 4.796875 14.679688 L 3.472656 14.679688 Z M 3.472656 14.015625 "/>
<path style=" stroke:none;fill-rule:nonzero;fill:url(#linear0);" d="M 3.640625 1.449219 C 3.597656 1.449219 3.554688 1.449219 3.511719 1.457031 C 3.503906 1.457031 3.496094 1.457031 3.492188 1.457031 C 3.488281 1.460938 3.484375 1.460938 3.480469 1.460938 C 3.476562 1.460938 3.472656 1.460938 3.46875 1.460938 C 3.039062 1.535156 2.707031 1.882812 2.652344 2.320312 C 2.652344 2.324219 2.652344 2.332031 2.652344 2.339844 C 2.648438 2.382812 2.644531 2.421875 2.644531 2.464844 L 2.644531 13.023438 C 2.644531 13.027344 2.644531 13.027344 2.644531 13.03125 C 2.640625 13.207031 2.683594 13.386719 2.78125 13.554688 C 3.054688 14.03125 3.660156 14.191406 4.136719 13.917969 L 13.300781 8.625 C 13.625 8.4375 13.804688 8.097656 13.796875 7.75 C 13.804688 7.402344 13.625 7.0625 13.300781 6.875 L 4.175781 1.605469 C 4.066406 1.535156 3.941406 1.484375 3.808594 1.460938 C 3.800781 1.460938 3.792969 1.460938 3.789062 1.460938 C 3.738281 1.453125 3.691406 1.449219 3.640625 1.449219 Z M 3.640625 1.449219 "/>
<path style=" stroke:none;fill-rule:nonzero;fill:rgb(100%,100%,100%);fill-opacity:0.392157;" d="M 3.640625 1.449219 C 3.597656 1.449219 3.554688 1.449219 3.511719 1.457031 C 3.503906 1.457031 3.496094 1.457031 3.492188 1.457031 C 3.488281 1.460938 3.484375 1.460938 3.480469 1.460938 C 3.476562 1.460938 3.472656 1.460938 3.46875 1.460938 C 3.039062 1.535156 2.707031 1.882812 2.652344 2.320312 C 2.652344 2.324219 2.652344 2.332031 2.652344 2.339844 C 2.648438 2.382812 2.644531 2.421875 2.644531 2.464844 L 2.644531 2.589844 C 2.648438 2.5625 2.648438 2.53125 2.652344 2.503906 C 2.652344 2.5 2.652344 2.492188 2.652344 2.484375 C 2.707031 2.046875 3.039062 1.699219 3.46875 1.628906 C 3.472656 1.628906 3.476562 1.625 3.480469 1.625 C 3.484375 1.625 3.488281 1.625 3.492188 1.625 C 3.496094 1.625 3.503906 1.621094 3.511719 1.621094 C 3.554688 1.617188 3.597656 1.613281 3.640625 1.613281 C 3.691406 1.613281 3.738281 1.617188 3.789062 1.625 C 3.792969 1.625 3.800781 1.628906 3.808594 1.628906 C 3.941406 1.652344 4.066406 1.699219 4.175781 1.769531 L 13.300781 7.039062 C 13.601562 7.210938 13.773438 7.511719 13.796875 7.832031 C 13.796875 7.804688 13.796875 7.777344 13.796875 7.75 C 13.804688 7.402344 13.625 7.0625 13.300781 6.875 L 4.175781 1.605469 C 4.066406 1.535156 3.941406 1.484375 3.808594 1.460938 C 3.800781 1.460938 3.792969 1.460938 3.789062 1.460938 C 3.738281 1.453125 3.691406 1.449219 3.640625 1.449219 Z M 2.644531 13.039062 C 2.644531 13.050781 2.644531 13.0625 2.644531 13.074219 Z M 2.644531 13.039062 "/>
<path style=" stroke:none;fill-rule:nonzero;fill:rgb(0%,0%,0%);fill-opacity:0.235294;" d="M 2.644531 2.421875 C 2.644531 2.4375 2.644531 2.449219 2.644531 2.464844 Z M 13.789062 7.601562 C 13.75 7.894531 13.578125 8.164062 13.300781 8.324219 L 4.136719 13.617188 C 3.660156 13.894531 3.054688 13.730469 2.78125 13.253906 C 2.691406 13.101562 2.648438 12.9375 2.644531 12.773438 L 2.644531 13.023438 C 2.644531 13.027344 2.644531 13.027344 2.644531 13.03125 C 2.640625 13.207031 2.683594 13.386719 2.78125 13.554688 C 3.054688 14.03125 3.660156 14.191406 4.136719 13.917969 L 13.300781 8.625 C 13.625 8.4375 13.804688 8.097656 13.796875 7.75 C 13.800781 7.699219 13.796875 7.648438 13.789062 7.601562 Z M 2.644531 12.726562 L 2.644531 12.742188 C 2.644531 12.738281 2.644531 12.734375 2.644531 12.734375 C 2.644531 12.730469 2.644531 12.726562 2.644531 12.726562 Z M 2.644531 12.726562 "/>
<path style=" stroke:none;fill-rule:nonzero;fill:rgb(12.941176%,12.941176%,12.941176%);fill-opacity:1;" d="M 3.640625 1.402344 C 3.597656 1.402344 3.550781 1.402344 3.503906 1.410156 C 3.5 1.410156 3.492188 1.410156 3.484375 1.414062 C 3.480469 1.414062 3.476562 1.414062 3.472656 1.414062 C 3.46875 1.414062 3.464844 1.414062 3.464844 1.414062 C 3.011719 1.492188 2.664062 1.855469 2.605469 2.3125 C 2.605469 2.320312 2.605469 2.328125 2.605469 2.335938 C 2.601562 2.378906 2.597656 2.421875 2.597656 2.464844 L 2.597656 13.023438 C 2.597656 13.027344 2.597656 13.027344 2.597656 13.03125 C 2.59375 13.214844 2.640625 13.402344 2.738281 13.578125 C 3.027344 14.074219 3.660156 14.246094 4.160156 13.957031 L 13.324219 8.664062 C 13.664062 8.46875 13.851562 8.113281 13.84375 7.75 C 13.851562 7.382812 13.664062 7.027344 13.324219 6.832031 L 4.199219 1.566406 C 4.085938 1.492188 3.957031 1.441406 3.816406 1.417969 C 3.808594 1.414062 3.800781 1.414062 3.792969 1.414062 C 3.742188 1.40625 3.691406 1.402344 3.640625 1.402344 Z M 3.640625 1.496094 C 3.6875 1.496094 3.734375 1.5 3.78125 1.503906 C 3.789062 1.507812 3.792969 1.507812 3.800781 1.507812 C 3.925781 1.53125 4.046875 1.578125 4.148438 1.644531 L 13.277344 6.914062 C 13.585938 7.09375 13.757812 7.417969 13.75 7.75 C 13.757812 8.082031 13.585938 8.40625 13.277344 8.582031 L 4.113281 13.875 C 3.65625 14.136719 3.082031 13.984375 2.820312 13.53125 C 2.730469 13.371094 2.6875 13.199219 2.691406 13.03125 C 2.691406 13.027344 2.691406 13.027344 2.691406 13.023438 L 2.691406 2.464844 C 2.691406 2.421875 2.695312 2.382812 2.699219 2.34375 C 2.699219 2.335938 2.699219 2.332031 2.699219 2.324219 C 2.75 1.910156 3.070312 1.578125 3.476562 1.507812 L 3.480469 1.507812 C 3.480469 1.507812 3.484375 1.507812 3.488281 1.507812 C 3.492188 1.507812 3.496094 1.503906 3.496094 1.503906 C 3.503906 1.503906 3.511719 1.503906 3.519531 1.503906 C 3.558594 1.496094 3.601562 1.496094 3.640625 1.496094 Z M 3.640625 1.496094 "/>
<path style=" stroke:none;fill-rule:nonzero;fill:url(#linear1);" d="M 5.457031 5.058594 C 5.253906 5.058594 5.089844 5.25 5.089844 5.488281 L 5.089844 9.171875 C 4.972656 9.136719 4.847656 9.117188 4.71875 9.117188 C 4.105469 9.117188 3.613281 9.53125 3.613281 10.042969 C 3.613281 10.554688 4.105469 10.964844 4.71875 10.964844 C 5.332031 10.964844 5.828125 10.554688 5.828125 10.042969 L 5.828125 5.980469 C 5.828125 5.878906 5.910156 5.796875 6.011719 5.796875 L 7.855469 5.796875 C 7.960938 5.796875 8.042969 5.878906 8.042969 5.980469 L 8.042969 8.0625 C 7.925781 8.03125 7.800781 8.011719 7.671875 8.011719 C 7.058594 8.011719 6.566406 8.421875 6.566406 8.933594 C 6.566406 9.445312 7.058594 9.855469 7.671875 9.855469 C 8.285156 9.855469 8.78125 9.445312 8.78125 8.933594 L 8.78125 5.488281 C 8.78125 5.25 8.617188 5.058594 8.410156 5.058594 Z M 5.457031 5.058594 "/>
<path style=" stroke:none;fill-rule:nonzero;fill:rgb(100%,100%,100%);fill-opacity:0.392157;" d="M 5.457031 5.058594 C 5.253906 5.058594 5.089844 5.25 5.089844 5.488281 L 5.089844 5.652344 C 5.089844 5.414062 5.253906 5.222656 5.457031 5.222656 L 8.410156 5.222656 C 8.617188 5.222656 8.78125 5.414062 8.78125 5.652344 L 8.78125 5.488281 C 8.78125 5.25 8.617188 5.058594 8.410156 5.058594 Z M 7.671875 8.011719 C 7.058594 8.011719 6.566406 8.421875 6.566406 8.933594 C 6.566406 8.960938 6.566406 8.988281 6.570312 9.015625 C 6.621094 8.542969 7.09375 8.175781 7.671875 8.175781 C 7.800781 8.175781 7.925781 8.195312 8.042969 8.230469 L 8.042969 8.0625 C 7.925781 8.03125 7.800781 8.011719 7.671875 8.011719 Z M 4.71875 9.117188 C 4.105469 9.117188 3.613281 9.53125 3.613281 10.042969 C 3.613281 10.070312 3.613281 10.097656 3.617188 10.125 C 3.664062 9.652344 4.140625 9.285156 4.71875 9.285156 C 4.847656 9.285156 4.972656 9.300781 5.089844 9.335938 L 5.089844 9.171875 C 4.972656 9.136719 4.847656 9.117188 4.71875 9.117188 Z M 4.71875 9.117188 "/>
<path style=" stroke:none;fill-rule:nonzero;fill:rgb(0%,0%,0%);fill-opacity:0.235294;" d="M 6.011719 5.796875 C 5.910156 5.796875 5.828125 5.878906 5.828125 5.980469 L 5.828125 6.230469 C 5.828125 6.125 5.910156 6.042969 6.011719 6.042969 L 7.855469 6.042969 C 7.960938 6.042969 8.042969 6.125 8.042969 6.230469 L 8.042969 5.980469 C 8.042969 5.878906 7.960938 5.796875 7.855469 5.796875 Z M 8.78125 8.933594 C 8.78125 9.445312 8.285156 9.855469 7.671875 9.855469 C 7.109375 9.855469 6.648438 9.511719 6.574219 9.058594 C 6.570312 9.097656 6.566406 9.140625 6.566406 9.183594 C 6.566406 9.695312 7.058594 10.105469 7.671875 10.105469 C 8.285156 10.105469 8.78125 9.695312 8.78125 9.183594 Z M 5.828125 10.042969 C 5.828125 10.554688 5.332031 10.964844 4.71875 10.964844 C 4.15625 10.964844 3.695312 10.617188 3.621094 10.164062 C 3.613281 10.207031 3.613281 10.246094 3.613281 10.289062 C 3.613281 10.800781 4.105469 11.210938 4.71875 11.210938 C 5.332031 11.210938 5.828125 10.800781 5.828125 10.289062 Z M 5.828125 10.042969 "/>
<path style="fill:none;stroke-width:3;stroke-linecap:round;stroke-linejoin:miter;stroke:rgb(12.941176%,12.941176%,12.941176%);stroke-opacity:1;stroke-miterlimit:4;" d="M 174.608326 -53.140457 C 168.108946 -53.140457 162.859448 -47.016042 162.859448 -39.39177 L 162.859448 78.471975 C 159.109806 77.347082 155.110188 76.722142 150.985582 76.722142 C 131.362456 76.722142 115.613959 89.970877 115.613959 106.344313 C 115.613959 122.71775 131.362456 135.841496 150.985582 135.841496 C 170.608708 135.841496 186.482192 122.71775 186.482192 106.344313 L 186.482192 -23.643274 C 186.482192 -26.892963 189.106941 -29.517713 192.356631 -29.517713 L 251.350997 -29.517713 C 254.725675 -29.517713 257.350424 -26.892963 257.350424 -23.643274 L 257.350424 42.975365 C 253.600782 41.97546 249.601164 41.35052 245.476558 41.35052 C 225.853432 41.35052 210.104936 54.474266 210.104936 70.847703 C 210.104936 87.221139 225.853432 100.344886 245.476558 100.344886 C 265.099684 100.344886 280.973168 87.221139 280.973168 70.847703 L 280.973168 -39.39177 C 280.973168 -47.016042 275.72367 -53.140457 269.099302 -53.140457 Z M 174.608326 -53.140457 " transform="matrix(0.031253,0,0,0.031253,0,6.719392)"/>
</g>
</svg>
